resources/svg/major-credit-card-cancel.svg

<svg xmlns="http://www.w3.org/2000/svg" viewBox="0 0 20 20" fill="currentColor"><path d="M15.5 9.90039C13.0149 9.90039 11 11.9153 11 14.4004C11 16.8861 13.0149 18.9004 15.5 18.9004C17.9851 18.9004 20 16.8861 20 14.4004C20 11.9153 17.9851 9.90039 15.5 9.90039ZM14.2102 12.3154C13.9906 12.0957 13.6344 12.0957 13.4148 12.3154C13.1951 12.535 13.1951 12.8912 13.4148 13.1109L14.7045 14.4006L13.4148 15.6904C13.1951 15.91 13.1951 16.2662 13.4148 16.4859C13.6344 16.7055 13.9906 16.7055 14.2102 16.4859L15.5 15.1961L16.7898 16.4859C17.0094 16.7055 17.3656 16.7055 17.5852 16.4859C17.8049 16.2662 17.8049 15.91 17.5852 15.6904L16.2955 14.4006L17.5852 13.1109C17.8049 12.8912 17.8049 12.535 17.5852 12.3154C17.3656 12.0957 17.0094 12.0957 16.7898 12.3154L15.5 13.6051L14.2102 12.3154Z" fill="#5C5F62" fill-rule="evenodd"/><path d="M1.5 0C0.671573 0 0 0.671573 0 1.5V3H20V1.5C20 0.671573 19.3284 0 18.5 0H1.5Z" fill="#5C5F62"/><path d="M0 12.5V5H20V8H14C11.2429 8 9 10.2356 9 12.987C9 13.5465 9 13.5 9 14H1.5C0.671573 14 0 13.3284 0 12.5ZM2 9H7V7H2V9Z" fill="#5C5F62" fill-rule="evenodd"/></svg>

<svg xmlns="http://www.w3.org/2000/svg" viewBox="0 0 20 20" fill="currentColor"><path d="M15.5 9.9a4.5 4.5 0 1 0 0 9 4.5 4.5 0 0 0 0-9Zm-1.29 2.415a.562.562 0 1 0-.795.796l1.29 1.29-1.29 1.29a.562.562 0 1 0 .795.795l1.29-1.29 1.29 1.29a.563.563 0 0 0 .795-.796l-1.29-1.29 1.29-1.29a.562.562 0 1 0-.795-.795l-1.29 1.29-1.29-1.29Z" fill-rule="evenodd"/><path d="M1.5 0a1.5 1.5 0 0 0-1.5 1.5v1.5h20v-1.5a1.5 1.5 0 0 0-1.5-1.5h-17Z"/><path d="M0 12.5v-7.5h20v3h-6c-2.757 0-5 2.236-5 4.987v1.013h-7.5a1.5 1.5 0 0 1-1.5-1.5Zm2-3.5h5v-2h-5v2Z" fill-rule="evenodd"/></svg>
